X:1798
T:Empty Wallet Waltz
O:england
C:Fredrik Jakobsson
R:waltz
M:3/4
K:G
G2|B3 A G2|E4 G2|A4 B2|A4 B2|d3 B G2|e3 d B2|A3 BAG|E4 G2|
B3 A G2|E4 G2|A4 B2|A4 B2|G3 F E2|E2 F2 D2|E6|1 E4:|2 E3 FGA||
Bd d2 B2|Ad d2 A2|GF GB AG|FGFE D2|EG G2 E2|DG G2 AB|c2 cB AG|A3 AGA|
Bd d2 B2|Ad d2 A2|GF GB AG|FGFE D2|EG G2 E2|DG G2 AB|cB AG GF|G4||


